packages/calcite-ui-icons/icons/domain-24.svg

<svg xmlns="http://www.w3.org/2000/svg" viewBox="0 0 24 24"><path d="M9 14H8v-4h11v1h-8a2 2 0 0 0-2 2z" opacity=".5"/><path d="M7 19H2V5h5z" opacity=".25"/><path d="M9 19H8v-4h1v-1H8v-4h5v1h1v-1h5v1h1V2a1 1 0 0 0-1-1H2a1 1 0 0 0-1 1v17a1 1 0 0 0 1 1h7zm4-10H8V5h5zm6 0h-5V5h5zM2 2h17v2H2zm5 17H2v-4h5zm0-5H2v-4h5zm0-5H2V5h5zm16 3H11a1 1 0 0 0-1 1v10a1 1 0 0 0 1 1h12a1 1 0 0 0 1-1V13a1 1 0 0 0-1-1m0 11H11V13h12zm-8-1h-3v-8h3v1h-2v6h2zm7-8v8h-3v-1h2v-6h-2v-1zm-2 3h-6v-1h6zm0 2h-6v-1h6z"/><path fill="none" d="M0 0h24v24H0z"/></svg>

<?xml version="1.0" encoding="UTF-8"?><svg id="icons" xmlns="http://www.w3.org/2000/svg" viewBox="0 0 24 24"><path d="M9,14h-1v-4h11v1h-8c-1.10455,0-2,.89539-2,2v1Z" opacity=".5"/><path d="M7,19H2V5h5v14Z" opacity=".25"/><path d="M9,19h-1v-4h1v-1h-1v-4h5v1h1v-1h5v1h1V2c0-.55231-.44769-1-1-1H2c-.55231,0-1,.44769-1,1v17c0,.55225.44769,1,1,1h7v-1ZM13,9h-5v-4h5v4ZM19,9h-5v-4h5v4ZM2,2h17v2H2v-2ZM7,19H2v-4h5v4ZM7,14H2v-4h5v4ZM7,9H2v-4h5v4ZM23,12h-12c-.55231,0-1,.44769-1,1v10c0,.55225.44769,1,1,1h12c.55231,0,1-.44775,1-1v-10c0-.55231-.44769-1-1-1ZM23,23h-12v-10h12v10ZM15,22h-3v-8h3v1h-2v6h2v1ZM22,14v8h-3v-1h2v-6h-2v-1h3ZM20,17h-6v-1h6v1ZM20,19h-6v-1h6v1Z"/><rect width="24" height="24" fill="none"/></svg>
